icon/fa/square-person-confined.svg

<svg xmlns="http://www.w3.org/2000/svg" viewBox="0 0 448 512"><!--! Font Awesome Free 6.1.2 by @fontawesome - https://fontawesome.com License - https://fontawesome.com/license/free (Icons: CC BY 4.0, Fonts: SIL OFL 1.1, Code: MIT License) Copyright 2022 Fonticons, Inc.--><path d="M384 32c35.3 0 64 28.65 64 64v320c0 35.3-28.7 64-64 64H64c-35.35 0-64-28.7-64-64V96c0-35.35 28.65-64 64-64h320zM208 96c-26.5 0-48 21.5-48 48s21.5 48 48 48 48-21.5 48-48-21.5-48-48-48zm32 210.7-41.4-41.3c-7.2-7.3-17.6-10.6-27.7-9-10.2 1.7-19.8 8.1-23.5 17.3l-48.01 96c-7.91 15.8-1.5 35 14.31 42.9 15.8 7.9 35 1.5 42.9-14.3l28.2-56.3 54.6 54.7c12.4 12.4 29.2 19.3 46.7 19.3 36.4 0 65.9-29.5 65.9-65.9V248c0-30.9-25.1-56-56-56s-56 25.1-56 56v58.7z"/></svg>

<svg xmlns="http://www.w3.org/2000/svg" viewBox="0 0 448 512" height="1em" width="1em">
<!--! Font Awesome Free 6.1.2 by @fontawesome - https://fontawesome.com License - https://fontawesome.com/license/free (Icons: CC BY 4.0, Fonts: SIL OFL 1.1, Code: MIT License) Copyright 2022 Fonticons, Inc.-->
  <path d="M384 32C419.3 32 448 60.65 448 96V416C448 451.3 419.3 480 384 480H64C28.65 480 0 451.3 0 416V96C0 60.65 28.65 32 64 32H384zM208 96C181.5 96 160 117.5 160 144C160 170.5 181.5 192 208 192C234.5 192 256 170.5 256 144C256 117.5 234.5 96 208 96zM240 306.7L198.6 265.4C191.4 258.1 181 254.8 170.9 256.4C160.7 258.1 151.1 264.5 147.4 273.7L99.39 369.7C91.48 385.5 97.89 404.7 113.7 412.6C129.5 420.5 148.7 414.1 156.6 398.3L184.8 342L239.4 396.7C251.8 409.1 268.6 416 286.1 416C322.5 416 352 386.5 352 350.1V248C352 217.1 326.9 192 296 192C265.1 192 240 217.1 240 248V306.7z"/>
</svg>
